packages/core/src/svgs/tokens/branded/SRM.svg

<svg width="24" height="24" viewBox="0 0 24 24" fill="none" xmlns="http://www.w3.org/2000/svg">
<path d="M11.9996 18.4701C9.13124 18.4701 6.80566 16.0072 6.80566 12.97C6.80566 10.0144 11.4956 4.80103 11.689 4.59603L11.9224 4.30881L12.1545 4.59603C12.3485 4.80159 17.1547 10.0149 17.1547 12.9694C17.1935 16.0072 14.868 18.4701 11.9996 18.4701ZM11.9607 5.37547C11.5345 5.86826 10.6818 6.85326 9.82897 8.08495C8.3179 10.2195 7.50344 11.9022 7.50344 12.9694C7.50344 15.5967 9.51903 17.7305 11.9996 17.7305C14.4801 17.7305 16.4957 15.5967 16.4957 12.9694C16.4957 11.9022 15.6818 10.2195 14.1313 8.08495C13.2784 6.89438 12.3868 5.86771 11.9607 5.37547Z" fill="#71E0EC"/>
<path d="M11.9998 20.235C8.20141 20.235 5.13916 16.9923 5.13916 12.9694C5.13916 9.06997 10.2948 3.61103 10.527 3.36437C10.5973 3.30456 10.6867 3.27171 10.779 3.27171C10.8713 3.27171 10.9606 3.30456 11.0308 3.36437C11.0877 3.44165 11.1185 3.53508 11.1185 3.63103C11.1185 3.72698 11.0877 3.82041 11.0308 3.89769C10.9531 3.93937 5.83695 9.35773 5.83695 12.97C5.83695 16.5817 8.58863 19.4961 11.9998 19.4961C15.4109 19.4961 18.1626 16.5817 18.1626 12.9694C18.1626 11.4917 17.2709 9.43935 15.566 7.05884C14.7542 5.92523 13.874 4.84229 12.9303 3.81603C12.7748 3.6927 12.7748 3.44658 12.9303 3.2827C13.0465 3.11825 13.2786 3.11825 13.4337 3.2827C13.6665 3.5288 18.8993 9.06997 18.8993 12.9694C18.8604 16.9923 15.7981 20.235 11.9998 20.235Z" fill="#71E0EC"/>
<path d="M11.9999 22C7.42597 22 3.6665 18.0183 3.6665 13.175C3.6665 11.1638 4.6354 8.70047 6.49596 5.82712C7.89153 3.73378 9.24821 2.21543 9.32544 2.13265C9.44208 1.96876 9.67438 1.96876 9.82928 2.13265C9.98484 2.25654 9.98484 2.50266 9.82928 2.66655C9.82928 2.66655 8.43376 4.18544 7.07764 6.27879C5.29429 8.98825 4.36428 11.3689 4.36428 13.2161C4.36428 17.69 7.81431 21.3022 11.9999 21.3022C16.1855 21.3022 19.6354 17.6077 19.6354 13.1744C19.6354 11.3278 18.7055 8.94659 16.9227 6.23825C15.5661 4.186 14.1705 2.66711 14.1705 2.62599C14.1137 2.54867 14.0831 2.45525 14.0831 2.35932C14.0831 2.2634 14.1137 2.16997 14.1705 2.09266C14.2407 2.03285 14.3301 2 14.4224 2C14.5148 2 14.6041 2.03285 14.6744 2.09266C14.8683 2.37933 20.3332 8.37215 20.3332 13.175C20.3332 18.0183 16.6122 22 11.9999 22Z" fill="#71E0EC"/>
</svg>

<svg xmlns="http://www.w3.org/2000/svg" width="24" height="24" fill="none" viewBox="0 0 24 24">
    <path fill="#71E0EC" d="M12 18.47c-2.869 0-5.194-2.463-5.194-5.5 0-2.956 4.69-8.169 4.883-8.374l.233-.287.232.287c.194.206 5 5.419 5 8.373.04 3.038-2.286 5.501-5.154 5.501m-.04-13.095c-.426.493-1.278 1.478-2.131 2.71-1.511 2.134-2.326 3.817-2.326 4.884 0 2.628 2.016 4.762 4.497 4.762s4.496-2.134 4.496-4.762c0-1.067-.814-2.75-2.365-4.884-.853-1.19-1.744-2.217-2.17-2.71"/>
    <path fill="#71E0EC" d="M12 20.235c-3.799 0-6.86-3.243-6.86-7.266 0-3.899 5.155-9.358 5.387-9.605a.39.39 0 0 1 .504 0 .45.45 0 0 1 0 .534c-.078.041-5.194 5.46-5.194 9.072S8.589 19.496 12 19.496c3.41 0 6.163-2.914 6.163-6.527 0-1.477-.892-3.53-2.597-5.91a34 34 0 0 0-2.636-3.243c-.155-.123-.155-.37 0-.533.117-.165.349-.165.504 0 .232.246 5.465 5.787 5.465 9.686-.039 4.023-3.1 7.266-6.9 7.266"/>
    <path fill="#71E0EC" d="M12 22c-4.574 0-8.333-3.982-8.333-8.825 0-2.011.968-4.475 2.829-7.348a35 35 0 0 1 2.83-3.694c.116-.164.348-.164.503 0 .156.124.156.37 0 .534 0 0-1.395 1.518-2.751 3.612-1.784 2.71-2.714 5.09-2.714 6.937 0 4.474 3.45 8.086 7.636 8.086s7.635-3.694 7.635-8.128c0-1.846-.93-4.227-2.712-6.936-1.357-2.052-2.752-3.57-2.752-3.612a.45.45 0 0 1 0-.533.39.39 0 0 1 .503 0c.194.286 5.66 6.28 5.66 11.082C20.333 18.018 16.611 22 12 22"/>
</svg>
